X: 21601
Q: "Moderato."
M: 3/4
L: 1/8
K: G
V: 1 staves=2
!p!cBc |\
(d2 B)def | (g2 d)d ({f}ed/c/) |\
(B2 G)B TA>G | G2 zcBc |\
(d2 B)def | g3 b "_cresc."(a/g/) (f/e/) |\
!f!d4 ({f}e>d) | d3 cBc |\
(d2 B)def | (g2 d)g (f/e/) (d/c/) |\
(B2 G)B (TA>G) | G2 z2 |]
V: 2
!p!FGA |\
(B2 G)BcA | B3 B ({d}cB/A/) |\
(B2 G)BcA | B3 g "_cresc."(f/e/) (d/^c/) |
dAFD (G>F) | (FDE)FGA |\
(B2 G)BcA | B3 e (d/c/) (B/A/) |\
(G2 D)G (TF>G) | G2 z2 |]


